icons/Search_white.svg

<svg width="16" height="16" viewBox="0 0 16 16" fill="currentColor" xmlns="http://www.w3.org/2000/svg">
<g clip-path="url(#clip0_4_932)">
<mask id="path-1-outside-1_4_932" maskUnits="userSpaceOnUse" x="0" y="0" width="16" height="16" fill="black">
<rect fill="white" width="16" height="16"/>
<path fill-rule="evenodd" clip-rule="evenodd" d="M11.0322 10.5955L14.8925 14.4607C15.0272 14.5955 15.0272 14.8202 14.9374 14.9101C14.8476 14.955 14.7579 15 14.6681 15C14.5783 15 14.4885 14.955 14.4437 14.9101L10.5834 11.0449C8.29414 13.0674 4.83784 12.9775 2.68326 10.8202C0.438912 8.57302 0.438912 4.93258 2.68326 2.68539C4.92761 0.438203 8.56346 0.438203 10.8078 2.68539C12.9624 4.84269 13.0522 8.30336 11.0322 10.5955ZM3.13213 3.17974C1.1571 5.15727 1.1571 8.39322 3.13213 10.3707C4.07475 11.3595 5.37648 11.8539 6.72309 11.8539C8.0697 11.8539 9.37142 11.3146 10.314 10.3707C12.2891 8.39322 12.2891 5.15727 10.314 3.17974C8.33902 1.20222 5.10716 1.20222 3.13213 3.17974Z"/>
</mask>
<path fill-rule="evenodd" clip-rule="evenodd" d="M11.0322 10.5955L14.8925 14.4607C15.0272 14.5955 15.0272 14.8202 14.9374 14.9101C14.8476 14.955 14.7579 15 14.6681 15C14.5783 15 14.4885 14.955 14.4437 14.9101L10.5834 11.0449C8.29414 13.0674 4.83784 12.9775 2.68326 10.8202C0.438912 8.57302 0.438912 4.93258 2.68326 2.68539C4.92761 0.438203 8.56346 0.438203 10.8078 2.68539C12.9624 4.84269 13.0522 8.30336 11.0322 10.5955ZM3.13213 3.17974C1.1571 5.15727 1.1571 8.39322 3.13213 10.3707C4.07475 11.3595 5.37648 11.8539 6.72309 11.8539C8.0697 11.8539 9.37142 11.3146 10.314 10.3707C12.2891 8.39322 12.2891 5.15727 10.314 3.17974C8.33902 1.20222 5.10716 1.20222 3.13213 3.17974Z" fill="#1F1F1F"/>
<path d="M14.8925 14.4607L14.9987 14.3547L14.9987 14.3547L14.8925 14.4607ZM11.0322 10.5955L10.9197 10.4963L10.8267 10.6019L10.9261 10.7015L11.0322 10.5955ZM14.9374 14.9101L15.0046 15.0442L15.0263 15.0333L15.0436 15.0161L14.9374 14.9101ZM14.4437 14.9101L14.3375 15.0161L14.3375 15.0161L14.4437 14.9101ZM10.5834 11.0449L10.6895 10.9389L10.5898 10.8391L10.4841 10.9325L10.5834 11.0449ZM2.68326 10.8202L2.57713 10.9262L2.57713 10.9262L2.68326 10.8202ZM2.68326 2.68539L2.7894 2.79139L2.7894 2.79139L2.68326 2.68539ZM10.8078 2.68539L10.7017 2.79139L10.8078 2.68539ZM3.13213 10.3707L3.24073 10.2672L3.23826 10.2647L3.13213 10.3707ZM3.13213 3.17974L3.02599 3.07374L3.02599 3.07374L3.13213 3.17974ZM10.314 10.3707L10.2079 10.2647L10.2079 10.2647L10.314 10.3707ZM10.314 3.17974L10.2079 3.28574L10.2079 3.28574L10.314 3.17974ZM14.9987 14.3547L11.1384 10.4895L10.9261 10.7015L14.7864 14.5667L14.9987 14.3547ZM15.0436 15.0161C15.1294 14.9301 15.1561 14.8023 15.1488 14.6923C15.1412 14.5773 15.0953 14.4515 14.9987 14.3547L14.7864 14.5667C14.8244 14.6047 14.8459 14.6586 14.8495 14.7122C14.8534 14.7707 14.8352 14.8002 14.8313 14.8041L15.0436 15.0161ZM14.6681 15.15C14.8002 15.15 14.9235 15.0848 15.0046 15.0442L14.8703 14.776C14.7718 14.8253 14.7155 14.85 14.6681 14.85V15.15ZM14.3375 15.0161C14.4086 15.0873 14.5359 15.15 14.6681 15.15V14.85C14.6474 14.85 14.6227 14.8445 14.5982 14.834C14.5731 14.8233 14.5564 14.8107 14.5498 14.8041L14.3375 15.0161ZM10.4772 11.1509L14.3375 15.0161L14.5498 14.8041L10.6895 10.9389L10.4772 11.1509ZM2.57713 10.9262C4.78841 13.1403 8.33476 13.2317 10.6827 11.1573L10.4841 10.9325C8.25352 12.9031 4.88727 12.8147 2.7894 10.7142L2.57713 10.9262ZM2.57713 2.57939C0.27429 4.88514 0.27429 8.62046 2.57713 10.9262L2.7894 10.7142C0.603535 8.52559 0.603535 4.98002 2.7894 2.79139L2.57713 2.57939ZM10.9139 2.57939C8.611 0.273536 4.88007 0.273536 2.57713 2.57939L2.7894 2.79139C4.97515 0.60287 8.51592 0.60287 10.7017 2.79139L10.9139 2.57939ZM11.1448 10.6947C13.2164 8.3439 13.1251 4.79338 10.9139 2.57939L10.7017 2.79139C12.7996 4.892 12.888 8.26282 10.9197 10.4963L11.1448 10.6947ZM3.23826 10.2647C1.32172 8.34578 1.32172 5.2047 3.23826 3.28574L3.02599 3.07374C0.992477 5.10983 0.992477 8.44066 3.02599 10.4767L3.23826 10.2647ZM6.72309 11.7039C5.41293 11.7039 4.15201 11.2232 3.2407 10.2672L3.02356 10.4742C3.9975 11.4959 5.34003 12.0039 6.72309 12.0039V11.7039ZM10.2079 10.2647C9.29358 11.1802 8.03011 11.7039 6.72309 11.7039V12.0039C8.10929 12.0039 9.44926 11.4489 10.4202 10.4767L10.2079 10.2647ZM10.2079 3.28574C12.1245 5.2047 12.1245 8.34578 10.2079 10.2647L10.4202 10.4767C12.4537 8.44066 12.4537 5.10983 10.4202 3.07374L10.2079 3.28574ZM3.23826 3.28574C5.15469 1.36688 8.29148 1.36688 10.2079 3.28574L10.4202 3.07374C8.38656 1.03755 5.05962 1.03755 3.02599 3.07374L3.23826 3.28574Z" fill="#1F1F1F" mask="url(#path-1-outside-1_4_932)"/>
</g>
<defs>
<clipPath id="clip0_4_932">
<rect width="16" height="16" fill="white"/>
</clipPath>
</defs>
</svg>

<svg xmlns="http://www.w3.org/2000/svg" width="16" height="16" fill="currentColor" class="si si-Search_white" viewBox="0 0 16 16">
  <g clip-path="url(#a)">
    <mask id="b" width="16" height="16" x="0" y="0" maskUnits="userSpaceOnUse">
      <path d="M0 0h16v16H0z"/>
      <path fill-rule="evenodd" d="m11.032 10.596 3.86 3.865c.135.134.135.36.045.45-.09.044-.18.089-.269.089a.34.34 0 0 1-.224-.09l-3.86-3.865c-2.29 2.022-5.746 1.932-7.9-.225a5.756 5.756 0 0 1 0-8.135 5.74 5.74 0 0 1 8.124 0c2.154 2.158 2.244 5.618.224 7.91m-7.9-7.416c-1.975 1.977-1.975 5.213 0 7.19.943.99 2.244 1.484 3.591 1.484s2.648-.54 3.591-1.483c1.975-1.978 1.975-5.214 0-7.191a5.09 5.09 0 0 0-7.182 0"/>
    </mask>
    <path fill-rule="evenodd" d="m11.032 10.596 3.86 3.865c.135.134.135.36.045.45-.09.044-.18.089-.269.089a.34.34 0 0 1-.224-.09l-3.86-3.865c-2.29 2.022-5.746 1.932-7.9-.225a5.756 5.756 0 0 1 0-8.135 5.74 5.74 0 0 1 8.124 0c2.154 2.158 2.244 5.618.224 7.91m-7.9-7.416c-1.975 1.977-1.975 5.213 0 7.19.943.99 2.244 1.484 3.591 1.484s2.648-.54 3.591-1.483c1.975-1.978 1.975-5.214 0-7.191a5.09 5.09 0 0 0-7.182 0"/>
    <path d="m14.893 14.46.106-.105zm-3.86-3.865-.113-.099-.093.106.1.1zm3.904 4.315.068.134.021-.01.018-.018zm-.493 0-.107.106zm-3.86-3.865.106-.106-.1-.1-.106.093zm-7.9-.225-.107.106zm0-8.135.105.106zm8.124 0-.106.106zm-7.676 7.686.109-.104-.003-.002zm0-7.191-.106-.106zm7.182 7.19-.106-.105zm0-7.19-.106.106zm4.685 11.175-3.86-3.866-.213.212 3.86 3.866zm.045.661a.42.42 0 0 0 .105-.324.53.53 0 0 0-.15-.337l-.213.212a.23.23 0 0 1 .064.145c.003.059-.015.088-.019.092zm-.376.134c.132 0 .256-.065.337-.106l-.135-.268c-.098.05-.154.074-.202.074zm-.33-.134a.5.5 0 0 0 .33.134v-.3a.2.2 0 0 1-.07-.016.2.2 0 0 1-.048-.03zm-3.86-3.865 3.86 3.865.212-.212-3.86-3.865zm-7.9-.225c2.21 2.214 5.757 2.306 8.105.231l-.199-.225c-2.23 1.971-5.597 1.883-7.695-.218zm0-8.347a5.906 5.906 0 0 0 0 8.347l.211-.212a5.606 5.606 0 0 1 0-7.923zm8.336 0a5.89 5.89 0 0 0-8.337 0l.212.212a5.59 5.59 0 0 1 7.913 0zm.23 8.116c2.072-2.351 1.981-5.902-.23-8.116l-.212.212c2.098 2.101 2.186 5.472.218 7.705zm-7.906-.43c-1.916-1.92-1.916-5.06 0-6.98l-.212-.211C.992 5.11.992 8.44 3.026 10.477zm3.485 1.439c-1.31 0-2.571-.48-3.482-1.437l-.217.207c.974 1.022 2.316 1.53 3.7 1.53zm3.485-1.44a4.94 4.94 0 0 1-3.485 1.44v.3a5.24 5.24 0 0 0 3.697-1.527zm0-6.978c1.916 1.919 1.916 5.06 0 6.979l.212.212c2.034-2.036 2.034-5.367 0-7.403zm-6.97 0a4.94 4.94 0 0 1 6.97 0l.212-.212a5.24 5.24 0 0 0-7.394 0z" mask="url(#b)"/>
  </g>
  <defs>
    <clipPath id="a">
      <path d="M0 0h16v16H0z"/>
    </clipPath>
  </defs>
</svg>
